X: 24310
T: Lou's
R: jig
M: 6/8
K: Amajor
g|aec {gf}ecA|ECE cAc|BGB {e}dcd|{d}cAc agb|
aec {gf}ecA|ECE cAc|BGB {e}dcB|1 ecA A3:|2 A3 A2||E|
|:CEA aec|Beg bge|abe' eac'|e'c'b bge|
[1aec ecA|dBG EAc|eac dBg|aA (A3E):|
[2aec EGB|AEC A,CE|eac dBg|aAA A2 ]|

